X: 3103
T: LORD PRESIDENT FORBES
Q:"Strathspey."
R: Strathspey.
%R:strathspey
B: James Kerr "Merry Melodies" v.3 p.13 #103
Z: 2016 John Chambers <jc:trillian.mit.edu>
%%slurgraces yes
%%graceslurs yes
M: C
L: 1/8
K: A
uE |\
vC>vEuA>uF E<CA,>uB, | C>EA>B c2(c<f) |\
C>EA>F E>CA,>d | c>BA>G [F3A,3] ::\
uc |\
f>ga>g f<c c>^e |
f>ga>g f2(f>^e) |\
[1 f>ga>g f<cc>a | g>ab>g f3 :|\
[2 {A}a>cd>B c>A^E<C | c>BA>G F3 |]

%%sep 1 1 500
%%sep 1 1 500

